X: 14817
T: Garden Of Daisies, The
R: hornpipe
M: 4/4
K: Dmajor
fg|:a2 af gbag|fdfa gfec|dcde fdec|dedc AGFG|
AB=cA d=cAG|FEFG ABcA|dcdf edce|1 d2 dc d4:|2 d2 dc d3 A||
dcde fdfg|abaf defg|abaf gbag|fefa gfec|dcde fdec|
dedc A2 fg|abaf gbag|fefa gfec|dcde fdec|dedc AGFG|
AB=cA d^cAG|FEFG AB=cA|dcdf edce|1 d2 dc d3 A:|2 d2 dc d4||

